flaticon/grooming/nail-polish-1.svg

<svg xmlns="http://www.w3.org/2000/svg" width="32" height="32" viewBox="0 0 24 24">
    <path d="M9.507812 14.582031C9.507812 14.039062 9.054688 13.585938 8.511719 13.585938L7.699219 13.585938 7.699219 3.621094 7.925781 3.621094C8.285156 3.621094 8.558594 3.394531 8.648438 3.035156L9.011719.859375C9.011719.632812 8.964844.453125 8.832031.273438 8.695312.0898438 8.511719 0 8.285156 0L6.203125 0C6.023438 0 5.796875.0898438 5.660156.273438 5.523438.453125 5.480469.632812 5.480469.859375L5.839844 3.035156C5.886719 3.351562 6.203125 3.621094 6.566406 3.621094L6.792969 3.621094 6.792969 13.585938 5.976562 13.585938C5.433594 13.585938 4.980469 14.039062 4.980469 14.582031L4.980469 15.847656 4.074219 15.847656 4.074219 24 10.414062 24 10.414062 15.847656 9.507812 15.847656zM6.429688.90625L8.058594.90625 7.742188 2.71875 6.703125 2.71875zM5.886719 14.582031C5.886719 14.535156 5.933594 14.492188 5.976562 14.492188L8.511719 14.492188C8.558594 14.492188 8.605469 14.535156 8.605469 14.582031L8.605469 15.847656 5.886719 15.847656zM9.507812 23.09375L4.980469 23.09375 4.980469 16.753906 9.507812 16.753906zM18.972656 8.152344L18.972656 7.019531C18.972656 6.386719 18.476562 5.886719 17.839844 5.886719L15.621094 5.886719C14.988281 5.886719 14.492188 6.386719 14.492188 7.019531L14.492188 8.152344 13.585938 8.152344 13.585938 24 19.925781 24 19.925781 8.152344zM15.441406 7.019531C15.441406 6.882812 15.53125 6.792969 15.667969 6.792969L17.886719 6.792969C18.023438 6.792969 18.113281 6.882812 18.113281 7.019531L18.113281 8.152344 15.441406 8.152344zM19.019531 19.019531L17.207031 19.019531 17.207031 12.679688 19.019531 12.679688zM16.300781 11.773438L16.300781 19.925781 19.019531 19.925781 19.019531 23.09375 14.492188 23.09375 14.492188 9.054688 19.019531 9.054688 19.019531 11.773438zM16.300781 11.773438"/>
</svg>

<svg xmlns="http://www.w3.org/2000/svg" width="32" height="32" viewBox="0 0 24 24">
    <path d="M9.508 14.582c0-.543-.453-.996-.996-.996h-.813V3.62h.227c.36 0 .633-.226.722-.586L9.012.86a.916.916 0 0 0-.18-.586A.648.648 0 0 0 8.285 0H6.203c-.18 0-.406.09-.543.273-.137.18-.18.36-.18.586l.36 2.176c.047.317.363.586.726.586h.227v9.965h-.816c-.543 0-.997.453-.997.996v1.266h-.906V24h6.34v-8.152h-.906zM6.43.906h1.629L7.742 2.72H6.703zm-.543 13.676c0-.047.047-.09.09-.09h2.535c.047 0 .093.043.093.09v1.266H5.887zm3.62 8.512H4.98v-6.34h4.528zm0 0M18.973 8.152V7.02c0-.633-.496-1.133-1.133-1.133H15.62c-.633 0-1.129.5-1.129 1.133v1.132h-.906V24h6.34V8.152zM15.44 7.02c0-.137.09-.227.227-.227h2.219c.136 0 .226.09.226.227v1.132h-2.672zm3.579 12h-1.813v-6.34h1.813zm-2.72-7.247v8.153h2.72v3.168h-4.528V9.054h4.528v2.72zm0 0"/>
</svg>
